packages/core/src/svgs/impt.svg

<svg width="24" height="24" viewBox="0 0 24 24" fill="none" xmlns="http://www.w3.org/2000/svg">
<g clip-path="url(#clip0_31_11801)">
<path d="M0 0H24V24H0V0Z" fill="#F0F3FA"/>
<path d="M12.3855 4.5001L3.59977 10.2644C3.45403 10.359 3.32841 10.4815 3.2301 10.6247C3.1318 10.768 3.06275 10.9293 3.02691 11.0993C2.99108 11.2693 2.98916 11.4447 3.02128 11.6155C3.05339 11.7863 3.1189 11.949 3.21405 12.0944L6.39405 16.9672C6.58573 17.2585 6.88486 17.4621 7.22612 17.5335C7.56738 17.605 7.92305 17.5385 8.21548 17.3487L17.0012 11.5844C17.1466 11.4894 17.2718 11.3667 17.3697 11.2233C17.4676 11.0799 17.5362 10.9185 17.5717 10.7485C17.6071 10.5785 17.6086 10.4032 17.5762 10.2326C17.5438 10.062 17.478 9.89952 17.3826 9.75439L14.2026 4.88582C14.0109 4.59457 13.7118 4.391 13.3706 4.31953C13.0293 4.24807 12.6736 4.31452 12.3812 4.50439L12.3855 4.5001Z" fill="#89EFDB"/>
<path d="M15.9685 6.80576L5.7685 9.30862C5.60038 9.34977 5.44203 9.4237 5.30253 9.52615C5.16303 9.6286 5.04511 9.75757 4.95553 9.90567C4.86596 10.0538 4.80648 10.2181 4.78052 10.3892C4.75455 10.5603 4.7626 10.7349 4.80421 10.9029L6.18421 16.56C6.26741 16.8998 6.48204 17.1926 6.78096 17.3742C7.07988 17.5558 7.43866 17.6113 7.7785 17.5286L17.9742 15.0258C18.1428 14.9846 18.3016 14.9106 18.4414 14.8078C18.5812 14.7051 18.6994 14.5757 18.789 14.4271C18.8786 14.2785 18.938 14.1137 18.9636 13.9421C18.9893 13.7705 18.9807 13.5955 18.9385 13.4272L17.5585 7.77005C17.4743 7.43298 17.2606 7.14271 16.9637 6.96219C16.6669 6.78167 16.3108 6.72546 15.9728 6.80576H15.9685Z" fill="#A57FE2"/>
<path d="M15.5312 6.92139L5.77696 9.3171C5.608 9.35776 5.44877 9.43148 5.30845 9.53402C5.16814 9.63655 5.04954 9.76587 4.95948 9.9145C4.86943 10.0631 4.80971 10.2281 4.78377 10.4C4.75784 10.5718 4.76621 10.7471 4.80839 10.9157L6.18839 16.5685L6.24839 16.7528L6.39411 16.9757C6.54157 17.1986 6.75343 17.3713 7.00149 17.4708C7.24955 17.5704 7.52203 17.592 7.78268 17.5328L7.90268 17.5071C8.01411 17.4728 8.11696 17.4214 8.21982 17.3571L17.0055 11.5928C17.298 11.4011 17.5024 11.1012 17.5739 10.7589C17.6454 10.4166 17.5782 10.0599 17.387 9.7671L15.5312 6.92139Z" fill="#886EE2"/>
<path d="M17.9873 9H7.65014C6.943 9 6.42871 9.68571 6.42871 10.3629V16.2429C6.42871 16.9543 6.93871 17.5757 7.65014 17.5757H17.9873C18.1586 17.576 18.3281 17.5416 18.4858 17.4746C18.6434 17.4075 18.7858 17.3093 18.9044 17.1857C19.1508 16.9339 19.2879 16.5951 19.2859 16.2429V10.3714C19.2847 10.0198 19.1481 9.68211 18.9044 9.42857C18.7852 9.30447 18.6424 9.2054 18.4844 9.13714C18.3301 9.06857 18.1587 9.00429 17.9873 9.00429V9Z" fill="#9EED57"/>
<path d="M19.243 13.3929L18.1887 9H7.68871C6.96871 9 6.42871 9.67286 6.42871 10.3629V16.2429C6.42871 17.0914 7.17014 17.7343 7.993 17.5329L18.2744 15.0043C18.4443 14.9626 18.6042 14.8879 18.7451 14.7843C18.886 14.6807 19.0051 14.5503 19.0955 14.4006C19.1858 14.2509 19.2458 14.0848 19.2718 13.9119C19.2979 13.7389 19.2895 13.5626 19.2473 13.3929H19.243Z" fill="#77E03B"/>
<path d="M15.8573 12.8574V12.4288H15.4288V12.0002H15.0002V12.4288H14.7131V12.8574H15.0002V13.5731C15.0002 14.0188 15.2273 14.1945 15.8573 14.1302V13.7145C15.6002 13.7274 15.4288 13.7531 15.4288 13.5731V12.8574H15.8573ZM13.8088 12.4288C13.5559 12.4288 13.4102 12.5231 13.2859 12.6816V12.4288H12.8573V14.5288C12.8573 14.6445 12.6945 14.7345 12.5788 14.7088C12.5371 14.7001 12.4997 14.6776 12.4724 14.6449C12.4452 14.6122 12.4298 14.5713 12.4288 14.5288V13.1359C12.4288 12.7074 12.1759 12.4288 11.7816 12.4288C11.5459 12.4288 11.3702 12.5231 11.2631 12.6774C11.1645 12.5188 11.0059 12.4288 10.7916 12.4288C10.5773 12.4288 10.3845 12.5145 10.2859 12.6602V12.4288H9.85735V14.1431H10.2859V13.2302C10.2859 12.9731 10.4402 12.8445 10.6331 12.8445C10.8259 12.8445 10.9245 12.9645 10.9245 13.1702V14.1431H11.3745V13.2302C11.3745 12.9731 11.4988 12.8445 11.6959 12.8445C11.8845 12.8445 12.0002 12.9645 12.0002 13.1702V14.5202C12.0002 14.8374 12.2488 15.1288 12.5702 15.1502C12.9259 15.1802 13.2859 14.8931 13.2859 14.5331V13.9931C13.2859 13.9931 13.3545 14.1431 13.7145 14.1431C14.1816 14.1431 14.5716 13.8474 14.5716 13.3374C14.5716 12.8231 14.2716 12.4288 13.8088 12.4288ZM13.7231 13.7145C13.4531 13.7145 13.2859 13.5731 13.2859 13.2859C13.2859 12.9988 13.4531 12.8531 13.7273 12.8531C14.0016 12.8531 14.1431 12.9988 14.1431 13.2859C14.1431 13.5731 14.0059 13.7145 13.7273 13.7145H13.7231ZM9.42877 12.4288H9.0002V14.1431H9.42877V12.4288ZM9.15878 11.5759C9.11409 11.5855 9.07257 11.6062 9.03809 11.6362C9.00361 11.6662 8.9773 11.7044 8.96163 11.7474C8.88449 11.9445 9.03449 12.1416 9.21877 12.1416C9.36877 12.1416 9.49306 12.0131 9.49306 11.8588C9.49306 11.6874 9.33878 11.5374 9.15878 11.5759Z" fill="white"/>
</g>
<defs>
<clipPath id="clip0_31_11801">
<rect width="24" height="24" fill="white"/>
</clipPath>
</defs>
</svg>

<svg xmlns="http://www.w3.org/2000/svg" width="24" height="24" fill="none" viewBox="0 0 24 24"><g clip-path="url(#a)"><path fill="#F0F3FA" d="M0 0h24v24H0z"/><path fill="#89EFDB" d="M12.386 4.5 3.6 10.264a1.32 1.32 0 0 0-.386 1.83l3.18 4.873a1.32 1.32 0 0 0 1.821.382l8.786-5.765a1.32 1.32 0 0 0 .382-1.83l-3.18-4.868a1.32 1.32 0 0 0-1.822-.382z"/><path fill="#A57FE2" d="m15.969 6.806-10.2 2.503a1.316 1.316 0 0 0-.965 1.594l1.38 5.657a1.32 1.32 0 0 0 1.595.969l10.195-2.503a1.316 1.316 0 0 0 .965-1.599l-1.38-5.657a1.32 1.32 0 0 0-1.586-.964z"/><path fill="#886EE2" d="M15.531 6.921 5.777 9.317a1.316 1.316 0 0 0-.969 1.599l1.38 5.653.06.184.146.223a1.315 1.315 0 0 0 1.389.557l.12-.026c.111-.034.214-.086.317-.15l8.786-5.764a1.32 1.32 0 0 0 .381-1.826z"/><path fill="#9EED57" d="M17.987 9H7.65c-.707 0-1.221.686-1.221 1.363v5.88c0 .711.51 1.333 1.221 1.333h10.337a1.27 1.27 0 0 0 .917-.39c.247-.252.384-.59.382-.943V10.37a1.37 1.37 0 0 0-.382-.942 1.3 1.3 0 0 0-.42-.292c-.154-.068-.325-.133-.497-.133z"/><path fill="#77E03B" d="M19.243 13.393 18.189 9h-10.5c-.72 0-1.26.673-1.26 1.363v5.88c0 .848.741 1.491 1.564 1.29l10.281-2.529a1.33 1.33 0 0 0 .973-1.611z"/><path fill="#fff" d="M15.857 12.857v-.428h-.428V12H15v.429h-.287v.428H15v.716c0 .446.227.621.857.557v-.416c-.257.013-.428.04-.428-.14v-.717zm-2.048-.428a.6.6 0 0 0-.523.253v-.253h-.429v2.1c0 .116-.162.206-.278.18a.19.19 0 0 1-.15-.18v-1.393c0-.429-.253-.707-.647-.707-.236 0-.412.094-.519.248a.52.52 0 0 0-.471-.248c-.215 0-.408.085-.506.231v-.231h-.429v1.714h.429v-.913c0-.257.154-.386.347-.386s.292.12.292.326v.973h.45v-.913c0-.257.124-.386.32-.386.19 0 .305.12.305.326v1.35c0 .317.249.609.57.63.356.03.716-.257.716-.617v-.54s.069.15.428.15c.468 0 .858-.296.858-.806 0-.514-.3-.908-.763-.908m-.086 1.285c-.27 0-.437-.14-.437-.428 0-.287.167-.433.441-.433q.414.001.416.433.001.43-.416.428zM9.43 12.43H9v1.714h.429zm-.27-.853a.27.27 0 0 0-.197.171.287.287 0 0 0 .257.395.28.28 0 0 0 .274-.283c0-.172-.154-.322-.334-.283"/></g><defs><clipPath id="a"><path fill="#fff" d="M0 0h24v24H0z"/></clipPath></defs></svg>
